X:1
T:James Gibb editions
T:The sower went forth sowing - Barnby
T:#
%%score [ ( 1 2 3 ) ( 4 5 6 ) ]
L:1/8
Q:1/4=80
M:4/4
K:G
V:1 treble nm="Midi_74"
V:2 treble 
V:3 treble 
V:4 bass nm="Midi_74"
V:5 bass 
V:6 bass 
V:1
"^Sopranos""^William St Hill Bourne\n(1846-1929)""^The sower went forth sowing""^Joseph Barnby\n(1838-96)" D2 | %1
w: The|
w: Be-|
w: Wi-|
 D3 D E2 F2 | E2 D4 D2 | D2 E2 F2 G2 | A6 D2 | D2 E2 F2 G2 | (G2 F2) B2 A2 | G2 A2 B2 ^c2 | %8
w: sow- er went forth|sow- ing, The|seed in se- cret|slept Through|weeks of faith and|pa\- * tíence, Till|out the green blade|
w: hold! the heaven- ly|So- wer Goes|forth with bet- ter|seed, The|word of sure sal-|va\- * tion, With|feet and hands that|
w: thin a hal- lowed|a- cre He|sows yet o- ther|grain, When|peace- ful earth re-|cei\- * veth The|dead He died to|
 d6"^Harmony" d2 | A2 B2 c2 BA | (B2 e2) d2 B2 | A2 B2 c2 BA | B6 B2 | B3 B ^c2 ^d2 | %14
w: crept; And|warmed by gol- den *|sun\- * shine, And|fed by sil- ver *|rain, At|last the fields were|
w: bleed; Here|in His Church 'tis *|scat\_- * tered, Our|spi- rits are the *|soil; Then|let an am- ple|
w: gain; For|though the growth be *|hid\- * den, We|know that they shall *|rise; Yea|e- ven now they|
 (e2 B2) ^c2 d2 | A2"^rit." GD F2 E2 | D4!f! !fermata!d4 |"^a tempo" d2 B c d2 e2 | e4 d2 c2 | %19
w: whi\- * tened To|har- vest * once a-|gain. O|praise the * heaven- ly|Sow- er, Who|
w: frui\- * tage Re-|pay His * pain and|toil. Oh,|beau- teous * is the|har- vest, Where-|
w: ri\- * pen In|sun- ny * Pa- ra-|dise. O|sum- mer * land of|har- vest, O|
 B2 GA B2 c2 |"^1" (c4 B2) A2 | G2 A2 B2 c2 | (d2 e2) d2 G2 |"^rit." B2 cG B2 A2 | G6 || %25
w: gave the * fruit- ful|seed, * And|watched and wa- tered|du\- * ly, And|ri- pened * for our|need.|
w: in all * good- ness|thrives, * And|this the true thanks-|gi\- * ving, The|first fruits * of our|lives.|
w: fields for\- * e- ver|white * With|souls that wear Christ's|rai\- * ment, With|crowns of * gol- den|light.|
"^Unison" G2 | G3 G G2 _A2 | _A4 G2 G2 | c3 c _B2 _A2 | G6"^Harmony" G2 | G2 c2 B2 A2 | d4 d2 c2 | %32
w: One|day the heaven- ly|Sow- er Shall|reap where He hath|sown, And|come a- gain re-|joic- ing, And|
w: |||||||
w: |||||||
 c2 B2 B2 A2 | G6 G2 | G3 G G2 A2 | _B4 B2 B2 x7 | A A3 A2 E2 | =F6 F2 | =F3 F F2 G2 | _A4 G2 G2 | %40
w: with Him bring His|own; And|then the fan of|judg- ment Shall|win- now from His|floor The|chaff in- to the|fur- nace That|
w: ||||||||
w: ||||||||
 c3 c c2 !courtesy!=B2 | !fermata!d4"^Slower" !fermata!z2!p! G2 |"^Harmony" G2 G2 A2 ^A2 | %43
w: flam- eth e- ver-|more. O|ho- ly, aw- ful|
w: |||
w: |||
 B4 B2 B2 | B3 B B2 ^c2 | d4 D4 | D2 D2 E2 !courtesy!^F2 | (E2 B2) A2 G2 | G4 E4 | !>!F6 F2 | G8 || %51
w: Rea- per, Have|mer- cy in the|day Thou|put- test in Thy|sic\- * kle, And|cast us|not a-|way.|
w: ||||||||
w: ||||||||
 G8 | G8 |] %53
w: A-|men.|
w: ||
w: ||
V:2
 x2 | B,8 | C8 | D8 | D8 | D4 [B,D]4 | D4 D4 | G2 F2 E4 | D6 D2 | F2 F2 F2 F2 | G4 G2 G2 | %11
 F2 F2 F2 F2 | G6 D2 | ^D3 D E2 F2 | (E2 G2) G2 G2 | F2 D2 ^C2 C2 | D4 F4 | G2 G2 G2 G2 | %18
 F4 A2 F2 | G2 E2 E2 E2 | (^D4 F2) D2 | E2 G2 G2 G2 | (G2 F2) G2 G2 | G2 E2 F2 F2 | G6 || x2 | x8 | %27
 x8 | x8 | x6 B,2 | C2 C2 D2 _E2 | (D2 =F2) E2 _E2 | D2 D2 C2 C2 | B,6 G2 | G3 G G2 A2 | %35
 _B4 x4 x7 | x8 | x6 =F2 | =F3 F F2 G2 | x8 | !courtesy!^f8 | g4 x2 G2 | G2 G2 G2 G2 | F4 ^D2 D2 | %44
 E2 G2 F2 E2 | D4 D4 | D2 D2 D2 D2 | D4 C2 E2 | D4 E4 | (E4 D2) C2 | B,8 || E8 | D8 |] %53
V:3
 x2 | x8 | x8 | x8 | x8 | x8 | x8 | x8 | x8 | x8 | x8 | x8 | x8 | x8 | x8 | x8 | x8 | x8 | x8 | %19
 x8 | x8 | x8 | x8 | x8 | x6 || x2 | =F2 _E2 D2 C2 | B,2 D2 G2 =F2 | _E2 G2 D2 C2 | B,2 D2 G,2 x2 | %30
 x8 | x8 | x8 | x8 | x8 | z2 G2 E2 D2 x7 | ^C2 E2 A,2 C2 | D2 A,2 x4 | x8 | =f4 _e4 | A6 x2 | %41
 G4 x4 | x8 | x8 | x8 | x8 | x8 | x8 | x8 | x8 | x8 || x8 | x8 |] %53
V:4
 D,2- | D,8 | F,8 | G,8 | F,8 | [B,,G,]4 G,,4 | [A,,A,]4 G,2 F,2 | B,2 A,2 G,4 | F,6 D2 | %9
 C2 B,2 A,2 B,C | (B,2 C2) B,2 D2 | C2 B,2 A,2 B,C | B,6 B,2 | A,3 A, A,2 A,2 | (G,2 B,2) E2 D2 | %15
 D2 B,2 G,2 G,2 | F,4!f! C4 | B,2 D2 B,2 B,2 | C4 A,2 D2 | G,2 B,2 G,2 G,2 | (A,4 F,2) B,2 | %21
 B,2 C2 D2 E2 | (D2 C2) D2 E2 | D2 E2 C2 C2 | B,6 || G,2 | G,3 G, G,2 _A,2 | _A,4 G,2 G,2 | %28
 C3 C _B,2 _A,2 | G,6 G,2 | G,2 G,2 G,2 G,2 | G,4 G,2 G,2 | F,2 G,2 E,2 F,2 | G,6 G,2 | %34
 G,3 G, G,2 A,2 | _B,4 B,2 B,2 x7 | A, A,3 A,2 E,2 | =F,6 F,2 | =F,3 F, F,2 G,2 | !>!_A,4 G,2 G,2 | %40
 C3 C C2 !courtesy!=B,2 | D4 z2!p! G,2 | B,2 B,2 C2 ^C2 | B,4 B,2 B,2 | B,2 B,2 A,2 G,2 | F,4 F,4 | %46
 G,2 G,2 ^G,2 A,2 | B,4 E,2 A,2 | B,4 C4 | (C4 B,2) A,2 | G,8 || (G,4 C4) | B,8 |] %53
V:5
 x2 | G,,8 | A,,8 | B,,8 | C,8 | x4 x4 | x4 x4 | x4 A,,4 | D,6 D,2 | D,2 D,2 D,2 D,2 | %10
 G,4 G,2 G,2 | D,2 D,2 D,2 D,2 | G,6 G,2 | F,3 F, F,2 B,,2 | E,4 E,2 E,2 | A,2 A,2 A,,2 A,,2 | %16
 D,4 !fermata!D,4 | G,2 D,2 B,2 G,2 | (A,2 D,2) F,2 D,2 | E,2 B,,2 G,2 E,2 | (F,2 B,,2 ^D,2) B,,2 | %21
 E,2 E,2 D,2 C,2 | (B,,2 A,,2) B,,2 C,2 | D,2 D,2 D,2 D,2 | G,,6 || x2 | x8 | x8 | x8 | x6 =F,2 | %30
 _E,2 E,2 D,2 C,2 | B,,4 C,2 C,2 | D,2 D,2 D,2 D,2 | G,6 G,2 | G,3 G, G,2 A,2 | _B,4 x3 x8 | %36
 x6 =F,2 | x8 | =F,3 F, F,2 G,2 | G,,8- | G,,8- | !fermata!G,,4 x2 G,2 | E,2 E,2 E,2 E,2 | %43
 ^D,4 B,,2 A,2 | G,2 E,2 A,,2 A,,2 | D,4 C,4 | B,,2 B,,2 B,,2 A,,2 | ^G,,4 A,,2 C,2 | D,4 D,4 | %49
 D,6 D,2 | G,,8 || C,8 | G,,8 |] %53
V:6
 x2 | x8 | x8 | x8 | x8 | x8 | x8 | x8 | x8 | x8 | x8 | x8 | x8 | x8 | x8 | x8 | x8 | x8 | x8 | %19
 x8 | x8 | x8 | x8 | x8 | x6 || x2 | =F,2 _E,2 D,2 C,2 | B,,2 D,2 G,2 =F,2 | _E,2 G,2 D,2 C,2 | %29
 B,,2 D,2 G,,2 x2 | x6 x2 | x8 | x4 x4 | x4 x4 | x4 x4 | z2 G,2 E,2 .D,2 x7 | ^C,2 E,2 A,,2 C,2 | %37
 D,2 A,,2 [D,,D,]2 x2 | x8 | [B,D]4 C4 | [C_E]6 D2 | B,4 x4 | x8 | x8 | x8 | x8 | x8 | x4 x4 | %48
 x4 x4 | D,,8 | x4 x4 || x4 x4 | x4 x4 |] %53

